X:467
T:B467-  Tom a Bedlam
Q:1/4=120
L:1/4
M:C|
K:Am
A/B/|cBAA|^GE2F|GCG3/2F/|EG2C|\
GEAG|cde(d/c/)|BAB^G|AA3|\
GG/G/G(A/B/)|c(A/B/)cC/C/|GEFG|EC2C|\
GEAG/G/|cde(d/c/)|BAA^G|AA2|]
